packages/katcn/src/icons/svg/glasses.svg

<svg width="24" height="25" viewBox="0 0 24 25" fill="none" xmlns="http://www.w3.org/2000/svg">
<path d="M18.1781 10.208C16.3699 10.208 14.7626 11.2497 13.9589 12.708H10.242C9.3379 11.1455 7.83105 10.208 5.92237 10.208C3.21005 10.208 1 12.3955 1 15.208C1 18.0205 3.21005 20.208 5.92237 20.208C8.6347 20.208 10.8447 17.9163 10.8447 15.208C10.8447 15.1038 10.8447 14.8955 10.8447 14.7913H13.1553C13.1553 14.8955 13.1553 15.1038 13.1553 15.208C13.1553 18.0205 15.3653 20.208 18.0776 20.208C20.79 20.208 23 17.9163 23 15.208C23 12.4997 20.8904 10.208 18.1781 10.208ZM5.92237 18.1247C4.31507 18.1247 3.00913 16.7705 3.00913 15.208C3.00913 13.6455 4.31507 12.2913 5.92237 12.2913C7.52968 12.2913 8.83562 13.6455 8.83562 15.208C8.83562 16.7705 7.63014 18.1247 5.92237 18.1247ZM18.1781 18.1247C16.5708 18.1247 15.2648 16.7705 15.2648 15.208C15.2648 13.6455 16.5708 12.2913 18.1781 12.2913C19.7854 12.2913 21.0913 13.5413 21.0913 15.208C21.0913 16.8747 19.7854 18.1247 18.1781 18.1247Z" fill="black"/>
<path d="M1.53988 10.1143C1.6335 10.208 1.82075 10.208 1.91438 10.208C2.28888 10.208 2.66338 10.0205 2.757 9.64551L3.69325 7.39551C4.06775 6.55176 4.81675 6.08301 5.65938 6.08301H7.06375C7.6255 6.08301 8 5.70801 8 5.14551C8 4.58301 7.53188 4.20801 7.06375 4.20801H5.65938C4.06775 4.20801 2.56975 5.14551 2.008 6.55176L1.07175 8.89551C0.884505 9.36426 1.07175 9.92676 1.53988 10.1143Z" fill="black"/>
<path d="M16.9434 6.11277H18.3586C19.2077 6.11277 19.9624 6.58896 20.2455 7.35086L21.1889 9.63658C21.3776 10.0175 21.6606 10.208 22.038 10.208C22.1323 10.208 22.321 10.208 22.4154 10.1128C22.8871 9.92229 23.1701 9.35086 22.8871 8.87467L21.9436 6.58896C21.4719 5.16039 19.9624 4.20801 18.3586 4.20801H16.9434C16.3774 4.20801 16 4.58896 16 5.16039C16 5.73182 16.4717 6.11277 16.9434 6.11277Z" fill="black"/>
</svg>

<svg xmlns="http://www.w3.org/2000/svg" fill="none" viewBox="0 0 24 25"><path fill="#000" d="M18.178 10.208c-1.808 0-3.415 1.042-4.22 2.5h-3.716c-.904-1.562-2.411-2.5-4.32-2.5-2.712 0-4.922 2.188-4.922 5s2.21 5 4.922 5c2.713 0 4.923-2.292 4.923-5v-.417h2.31v.417c0 2.812 2.21 5 4.923 5s4.922-2.292 4.922-5-2.11-5-4.822-5M5.922 18.125c-1.607 0-2.913-1.355-2.913-2.917s1.306-2.917 2.913-2.917c1.608 0 2.914 1.354 2.914 2.917s-1.206 2.917-2.914 2.917m12.256 0c-1.607 0-2.913-1.355-2.913-2.917s1.306-2.917 2.913-2.917 2.913 1.25 2.913 2.917-1.306 2.917-2.913 2.917M1.54 10.114c.093.094.28.094.374.094.375 0 .75-.187.843-.562l.936-2.25c.375-.844 1.124-1.313 1.966-1.313h1.405c.561 0 .936-.375.936-.937a.94.94 0 0 0-.936-.938H5.659c-1.591 0-3.09.938-3.651 2.344l-.936 2.344c-.187.468 0 1.03.468 1.218m15.403-4.001h1.416c.849 0 1.603.476 1.886 1.238l.944 2.286q.284.57.849.571c.094 0 .283 0 .377-.095.472-.19.755-.762.472-1.238l-.943-2.286c-.472-1.429-1.982-2.381-3.585-2.381h-1.416c-.566 0-.943.381-.943.952a.95.95 0 0 0 .943.953"/></svg>
